X: 447
T: Crabbit Shona
B: good tune book
B: tunes
M:6/8
R: jig
Q: 3/8=100
K:Dmajor
V:1 
A|:"D" AdA FAA|"A7" GA EA EA|"D" FdA FAA|"G" GBB "Bm" BAF|
 "D" AdA FAA|"A7" GA EA EA|"D" FdA "G" BAG|"A" FAE D2 A:|
 |:"D" dAA fAA|"D" AaA fed|"A"cAA eAe|AgA ecA|
 "D" dAA fAA|"D" AaA fed|"A"cAA afe|"D" fdd d2 A:|
 |:"D" AdA FAA|"A" EA EA EA|"D" FdA FAA|"A7" GA GA GA|
 "D" AdA FAA|"A" EA EA EA|"D" FdA "G" BAG|"A" FdE "D"D2 A:|
 |:"D" dAA fAA|"D" AaA fed|"A"cAA eAe|AgA ecA|
 "D" dAA fAA|"D" AaA fed|"A"cAA afe|"D" fdd d3:|
% abcbook-tune_id 63ce6af39d26443bc8a0bc92
% abcbook-tune_composer_id 
% abcbook-link-0 https://www.youtube.com/watch?v=GvThezfcZcw
% abcbook-link-title-0 30.Crabbit Shona
% abcbook-boost 0
% abcbook-difficulty 0
% abcbook-tags good tune book
% abcbook-tablature 
% abcbook-transpose 
% abcbook-tuning 
% abcbook-lastupdated 1675425962412
% abcbook-soundfonts 
% abcbook-repeats 1


